X:1006
T:Mouth of the Tobique
R:reel
C:Francis Sowish, Canada
D:Patrick Street: All in Good Time
O:Quebec
Z:id:hn-reel-1006
M:C|
L:1/8
K:G
(3DEF | GFGA Bded | BdBG DGBG | ABAF DFAF | GABc d2 (3DEF |
GFGA Bded | BdBG DGBG | ABAF DFAF | GBAF G2 :|
|: ef | gfga gdBg | fdAd f2gf | ecAG FDEF | GABc d2ef |
gfga gdBg | fdAd f2gf | ecAG FDEF | GBAF G2 :|
|: (3DEF | GGBG GcGG | BGGc GGBG | FGAB cAFA | GABc d2 (3DEF |
GGBG GcGG | BGGc GGBG | FGAB cAFA | GBAF G2 :|

